X:234
T: Kehen guizi toule wode da yandai
N: C0371
O: China,Hebei, Xingtai
S: IV, 41]
N: nicht sehr typisch, aber das Lied wurde in vielen Zeitschriften -
N: Artkeln beschrieben. Es hat einen sehr ironischen Text. Eher
N: Kunstlied.
N: Vereinzelt Verzierungen.
R: Xiaodiao. Geming lishi minge]
M: 2/4
L: 1/16
K: C
e2edc2d2 | A2cAG2G2 | e2edc2Ac | d8 |
e2edc2d2 | A2cAG2G2 | AcAGE2G2 | D8 |
d6e2 | c2BAG4 | F2E2G4 | e2d2z4

@@@ Tune index: 6235
